!!!SOCIAL_FUNCTION:	songs used in treating the sick
!!!PDT:	1936
!!!OTL: No_29_I_Raise_the_Sick_Person.krn
!!!REG: Oklahoma and Montana
!!!LANG: Tone
!!!LING_GROUP: Algonquin
**kern
*staff1
=1-
*clefF4
*k[]
*M3/4
16e\LK
8.d\J
16.d\LL
32c\K
16d\
16c\JJ
8A\
8r
=2
8e\L
8d\J
(8.e\L
16d\Jk)
8d\
8r
=3
8e\L
8d\J
16.d\LL
32c\K
16d\JJ
16r
8A\
8r
=4
16d\LK
8.A\J
8.A\L
16E\Jk
4D\
=5
16E\LK
8.D\J
8D/L
8BB/J
4AA/
=6
16E\LK
8.D\J
8E\L
8E\J
8D\
8r
=7
16E\LK
8.D\J
8D/L
8BB/J
8AA/
8r
=8
*M2/4
4AA/
8.AA/L
16AA/Jk
=9
4AA/
8AA/
8r
==
*-
